X: 1
T: Saturday Night Breakdown
R: reel
Z: 2011 John Chambers <jc:trillian.mit.edu>
S: printed MS of unknown origin
M: C|
L: 1/8
K: C
ef | "C"g2g2 aged | c2G2 E2G2 | "F"FEFE DEFG | "G7"AG-G2 G2ef |
y4   "C"g2g2 aged | c2G2 E2G2 | "F"FEFd- "G7"dcB2 | "C"c4 c2 :|
|: AB | "C"cBAG E2AB | cBAG E3F- | "F"FEFE DEFG | "G7"AG-G2 G2AB |
y4      "C"cBAG E2AB | cBAG E2E2 | "F"FEFd- "G7"dcB2 | "C"c4 c2 :|
